;FLAVOR:UltiGCode
;TIME:10050
;MATERIAL:22218
;MATERIAL2:0
;NOZZLE_DIAMETER:0.4
;MINX:80.295
;MINY:86.15
;MINZ:0.27
;MAXX:142.705
;MAXY:130.412
;MAXZ:72.72
;TARGET_MACHINE.NAME:Ultimaker 2+
;Generated with Cura_SteamEngine 5.11.0
G0 F3000 Y50 ;avoid prime blob
M82 ;absolute extrusion mode
G92 E0
G92 E0
G10
;LAYER_COUNT:484
;LAYER:0
M107
G0 F9000 X82.617 Y94.46 Z0.27
;TYPE:SKIRT
G11
G1 F1800 X91.762 Y87.238 E1.25851
G1 X94.945 Y86.15 E1.6218
G1 X131.766 Y90.181 E5.62222
G1 X133.663 Y90.61 E5.83227
G1 X135.491 Y91.322 E6.04414
G1 X137.402 Y92.424 E6.28239
G1 X139.055 Y93.876 E6.52001
G1 X140.451 Y95.55 E6.75541
G1 X141.192 Y96.775 E6.91004
G1 X142.104 Y98.864 E7.15621
G1 X142.579 Y101.096 E7.40267
G1 X142.705 Y102.822 E7.58957
G1 X142.676 Y104.615 E7.78324
G1 X142.529 Y105.933 E7.92647
G1 X142.012 Y108.112 E8.16833
G1 X140.951 Y110.313 E8.43222
G1 X139.794 Y111.975 E8.65092
G1 X138.423 Y113.393 E8.86394
G1 X136.504 Y114.81 E9.12157
G1 X135.191 Y115.493 E9.28141
G1 X133.075 Y116.218 E9.52298
G1 X131.228 Y116.554 E9.72573
G1 X97.705 Y119.718 E13.36231
G1 X97.705 Y123.949 E13.81926
G1 X96.487 Y127.118 E14.18592
G1 X94.006 Y129.353 E14.54656
G1 X91.113 Y130.412 E14.87928
G1 X87.116 Y130.412 E15.31095
G1 X85.188 Y129.992 E15.52406
G1 X83.368 Y128.882 E15.75429
G1 X81.286 Y126.736 E16.07721
G1 X80.295 Y123.679 E16.42428
G1 X80.295 Y98.714 E19.1205
G1 X81.442 Y95.947 E19.444
G1 X82.617 Y94.46 E19.64868
G0 F9000 X82.902 Y94.745
G1 F1800 X91.956 Y87.595 E20.89465
G1 X94.99 Y86.558 E21.24093
G1 X131.722 Y90.579 E25.23169
G1 X133.519 Y90.983 E25.43061
G1 X135.291 Y91.669 E25.63582
G1 X137.171 Y92.753 E25.8702
G1 X138.748 Y94.133 E26.09652
G1 X140.109 Y95.758 E26.32544
G1 X140.825 Y96.935 E26.47423
G1 X141.722 Y98.989 E26.71629
G1 X142.18 Y101.125 E26.95222
G1 X142.305 Y102.816 E27.13535
G1 X142.278 Y104.571 E27.32491
G1 X142.131 Y105.889 E27.46814
G1 X141.633 Y107.978 E27.70007
G1 X140.591 Y110.139 E27.95918
G1 X139.506 Y111.698 E28.16431
G1 X138.185 Y113.072 E28.37016
G1 X136.319 Y114.455 E28.62101
G1 X135.006 Y115.138 E28.78085
G1 X133.003 Y115.825 E29.00954
G1 X131.19 Y116.156 E29.20858
G1 X97.305 Y119.354 E32.88443
G1 X97.305 Y123.876 E33.3728
G1 X96.149 Y126.884 E33.72083
G1 X93.796 Y129.004 E34.06288
G1 X91.042 Y130.012 E34.37961
G1 X87.16 Y130.012 E34.79887
G1 X85.337 Y129.615 E35.00037
G1 X83.622 Y128.569 E35.21732
G1 X81.638 Y126.524 E35.52504
G1 X80.695 Y123.615 E35.85531
G1 X80.695 Y98.795 E38.53587
G1 X81.791 Y96.151 E38.84498
G1 X82.902 Y94.745 E39.03851
G0 F9000 X83.187 Y95.03
G1 F1800 X92.15 Y87.952 E40.27195
G1 X95.035 Y86.966 E40.60123
G1 X131.678 Y90.977 E44.58231
G1 X133.375 Y91.356 E44.7701
G1 X135.091 Y92.016 E44.96866
G1 X136.937 Y93.08 E45.19878
G1 X138.442 Y94.391 E45.41434
G1 X139.768 Y95.967 E45.63678
G1 X140.458 Y97.095 E45.77959
G1 X141.339 Y99.113 E46.0174
G1 X141.781 Y101.155 E46.24304
G1 X141.905 Y102.81 E46.42228
G1 X141.88 Y104.527 E46.60774
G1 X141.733 Y105.845 E46.75096
G1 X141.254 Y107.844 E46.97297
G1 X140.231 Y109.965 E47.22729
G1 X139.217 Y111.422 E47.419
G1 X137.946 Y112.751 E47.6176
G1 X136.134 Y114.1 E47.86158
G1 X134.821 Y114.783 E48.02142
G1 X132.931 Y115.432 E48.23724
G1 X131.152 Y115.758 E48.43257
G1 X96.905 Y118.99 E52.14768
G1 X96.905 Y123.802 E52.66738
G1 X95.81 Y126.651 E52.99701
G1 X93.587 Y128.654 E53.32018
G1 X90.97 Y129.612 E53.62116
G1 X87.204 Y129.612 E54.02788
G1 X85.486 Y129.238 E54.21777
G1 X83.876 Y128.256 E54.42145
G1 X81.99 Y126.312 E54.71397
G1 X81.095 Y123.551 E55.02743
G1 X81.095 Y98.876 E57.69233
G1 X82.14 Y96.355 E57.98706
G1 X83.187 Y95.03 E58.16945
G0 F9000 X83.472 Y95.315
G1 F1800 X92.344 Y88.309 E59.39035
G1 X95.08 Y87.374 E59.70262
G1 X131.592 Y91.368 E63.66944
G1 X133.232 Y91.73 E63.85082
G1 X134.891 Y92.363 E64.04259
G1 X136.706 Y93.409 E64.26884
G1 X138.136 Y94.649 E64.47325
G1 X139.462 Y96.225 E64.69569
G1 X140.091 Y97.255 E64.82603
G1 X140.957 Y99.238 E65.05973
G1 X141.382 Y101.185 E65.27496
G1 X141.505 Y102.805 E65.45042
G1 X141.482 Y104.483 E65.63166
G1 X141.335 Y105.801 E65.77489
G1 X140.875 Y107.708 E65.98675
G1 X139.902 Y109.737 E66.22978
G1 X138.927 Y111.146 E66.41483
G1 X137.706 Y112.431 E66.60627
G1 X135.949 Y113.745 E66.84322
G1 X134.636 Y114.428 E67.00306
G1 X132.859 Y115.039 E67.20601
G1 X131.114 Y115.36 E67.39763
G1 X96.505 Y118.626 E71.15201
G1 X96.505 Y123.729 E71.70313
G1 X95.472 Y126.417 E72.01414
G1 X93.377 Y128.305 E72.31872
G1 X90.899 Y129.212 E72.60371
G1 X87.248 Y129.212 E72.99801
G1 X85.635 Y128.861 E73.17629
G1 X84.13 Y127.943 E73.36669
G1 X82.342 Y126.1 E73.64401
G1 X81.495 Y123.487 E73.94067
G1 X81.495 Y98.957 E76.58991
G1 X82.489 Y96.559 E76.87026
G1 X83.472 Y95.315 E77.04149
G0 F9000 X83.757 Y95.6
G1 F1800 X92.538 Y88.666 E78.24987
G1 X95.125 Y87.782 E78.54513
G1 X131.507 Y91.759 E82.49779
G1 X133.09 Y92.104 E82.67277
G1 X134.691 Y92.71 E82.85765
G1 X136.476 Y93.739 E83.08016
G1 X137.874 Y94.951 E83.27999
G1 X139.121 Y96.435 E83.48933
G1 X139.724 Y97.415 E83.6136
G1 X140.574 Y99.362 E83.84305
G1 X140.983 Y101.216 E84.04809
G1 X141.105 Y102.8 E84.21967
G1 X141.084 Y104.439 E84.3967
G1 X140.937 Y105.757 E84.53992
G1 X140.496 Y107.573 E84.74175
G1 X139.541 Y109.564 E84.98024
G1 X138.599 Y110.917 E85.15829
G1 X137.466 Y112.111 E85.33606
G1 X135.764 Y113.39 E85.56599
G1 X134.451 Y114.073 E85.72583
G1 X132.786 Y114.646 E85.916
G1 X131.076 Y114.962 E86.10381
G1 X96.105 Y118.262 E89.89745
G1 X96.105 Y123.655 E90.4799
G1 X95.133 Y126.184 E90.77251
G1 X93.167 Y127.956 E91.05836
G1 X90.828 Y128.812 E91.32735
G1 X87.292 Y128.812 E91.70924
G1 X85.784 Y128.484 E91.87591
G1 X84.384 Y127.63 E92.05302
G1 X82.694 Y125.888 E92.31515
G1 X81.895 Y123.423 E92.595
G1 X81.895 Y99.038 E95.22858
G1 X82.838 Y96.763 E95.49455
G1 X83.757 Y95.6 E95.65464
G0 F9000 X84.042 Y95.885
G1 F1800 X92.734 Y89.021 E96.85079
G1 X95.168 Y88.189 E97.12859
G1 X131.422 Y92.15 E101.06732
G1 X133.005 Y92.495 E101.2423
G1 X134.491 Y93.057 E101.41388
G1 X136.246 Y94.069 E101.63268
G1 X137.612 Y95.253 E101.82791
G1 X138.78 Y96.645 E102.02416
G1 X139.383 Y97.625 E102.14843
G1 X140.191 Y99.484 E102.36735
G1 X140.592 Y101.302 E102.56841
G1 X140.705 Y102.795 E102.73011
G1 X140.686 Y104.396 E102.90303
G1 X140.548 Y105.663 E103.04068
G1 X140.117 Y107.439 E103.23805
G1 X139.213 Y109.335 E103.46491
G1 X138.271 Y110.688 E103.64296
G1 X137.225 Y111.792 E103.80721
G1 X135.579 Y113.035 E104.02997
G1 X134.266 Y113.718 E104.18981
G1 X132.713 Y114.253 E104.36721
G1 X131.038 Y114.564 E104.5512
G1 X95.705 Y117.898 E108.38412
G1 X95.705 Y123.581 E108.99788
G1 X94.794 Y125.951 E109.2721
G1 X92.957 Y127.607 E109.53921
G1 X90.757 Y128.412 E109.79222
G1 X87.336 Y128.412 E110.16168
G1 X85.933 Y128.107 E110.31675
G1 X84.638 Y127.317 E110.48058
G1 X83.046 Y125.676 E110.7275
G1 X82.295 Y123.359 E110.99055
G1 X82.295 Y99.119 E113.60847
G1 X83.187 Y96.967 E113.86006
G1 X84.042 Y95.885 E114.009
G0 F9000 X84.327 Y96.17
G1 F1800 X83.536 Y97.171 E114.14679
G1 X82.695 Y99.2 E114.384
G1 X82.695 Y123.295 E116.98626
G1 X83.398 Y125.464 E117.23251
G1 X84.892 Y127.004 E117.46423
G1 X86.082 Y127.73 E117.61478
G1 X87.38 Y128.012 E117.75824
G1 X90.686 Y128.012 E118.11528
G1 X92.747 Y127.258 E118.3523
G1 X94.455 Y125.718 E118.60067
G1 X95.305 Y123.507 E118.8565
G1 X95.305 Y117.534 E119.50158
G1 X131 Y114.166 E123.37377
G1 X132.64 Y113.86 E123.55394
G1 X134.081 Y113.363 E123.71857
G1 X135.394 Y112.68 E123.87841
G1 X136.983 Y111.473 E124.09392
G1 X137.943 Y110.459 E124.24472
G1 X138.885 Y109.106 E124.42277
G1 X139.738 Y107.304 E124.63809
G1 X140.159 Y105.569 E124.83091
G1 X140.288 Y104.354 E124.96287
G1 X140.305 Y102.791 E125.13168
G1 X140.201 Y101.388 E125.28362
G1 X139.808 Y99.606 E125.4807
G1 X139.042 Y97.835 E125.68909
G1 X138.439 Y96.855 E125.81337
G1 X137.306 Y95.511 E126.00321
G1 X136.015 Y94.398 E126.1873
G1 X134.291 Y93.404 E126.40223
G1 X132.865 Y92.87 E126.56668
G1 X131.379 Y92.548 E126.73089
G1 X95.213 Y88.597 E130.66006
G1 X92.928 Y89.378 E130.92085
G1 X84.327 Y96.17 E132.10447
G0 F9000 X84.612 Y96.455
G1 F1800 X93.122 Y89.735 E133.27555
G1 X95.258 Y89.005 E133.51934
G1 X131.336 Y92.946 E137.43894
G1 X132.726 Y93.245 E137.5925
G1 X134.091 Y93.751 E137.74972
G1 X135.784 Y94.727 E137.96077
G1 X137.001 Y95.77 E138.13387
G1 X138.098 Y97.065 E138.31717
G1 X138.701 Y98.045 E138.44144
G1 X139.424 Y99.726 E138.63907
G1 X139.81 Y101.474 E138.8324
G1 X139.905 Y102.787 E138.97457
G1 X139.89 Y104.313 E139.13939
G1 X139.77 Y105.475 E139.26555
G1 X139.358 Y107.171 E139.45405
G1 X138.556 Y108.878 E139.65774
G1 X137.651 Y110.185 E139.82943
G1 X136.741 Y111.154 E139.973
G1 X135.152 Y112.361 E140.1885
G1 X133.898 Y113.007 E140.34085
G1 X132.566 Y113.467 E140.49304
G1 X130.962 Y113.768 E140.6693
G1 X94.905 Y117.17 E144.58075
G1 X94.905 Y123.433 E145.25715
G1 X94.116 Y125.485 E145.49459
G1 X92.537 Y126.909 E145.72422
G1 X90.615 Y127.612 E145.94525
G1 X87.424 Y127.612 E146.28988
G1 X86.231 Y127.353 E146.42172
G1 X85.146 Y126.691 E146.55899
G1 X83.75 Y125.252 E146.77552
G1 X83.095 Y123.231 E147.00496
G1 X83.095 Y99.281 E149.59156
G1 X83.885 Y97.375 E149.81439
G1 X84.612 Y96.455 E149.94103
G0 F9000 X84.897 Y96.74
G1 F1800 X93.316 Y90.092 E151.09958
G1 X95.303 Y89.413 E151.32636
G1 X131.293 Y93.344 E155.2364
G1 X132.588 Y93.621 E155.37942
G1 X133.891 Y94.098 E155.52928
G1 X135.554 Y95.057 E155.73661
G1 X136.741 Y96.074 E155.90542
G1 X137.757 Y97.275 E156.07532
G1 X138.36 Y98.255 E156.19959
G1 X139.041 Y99.848 E156.38669
G1 X139.419 Y101.56 E156.57604
G1 X139.505 Y102.784 E156.70856
G1 X139.492 Y104.273 E156.86938
G1 X139.381 Y105.381 E156.98964
G1 X138.978 Y107.041 E157.17413
G1 X138.226 Y108.651 E157.36604
G1 X137.359 Y109.911 E157.53122
G1 X136.449 Y110.88 E157.67479
G1 X134.969 Y112.005 E157.87556
G1 X133.715 Y112.651 E158.02791
G1 X132.492 Y113.074 E158.16767
G1 X130.924 Y113.37 E158.34001
G1 X94.505 Y116.806 E162.29073
G1 X94.505 Y123.359 E162.99845
G1 X93.777 Y125.252 E163.21749
G1 X92.327 Y126.56 E163.42839
G1 X90.544 Y127.212 E163.63343
G1 X87.468 Y127.212 E163.96563
G1 X86.38 Y126.976 E164.08587
G1 X85.4 Y126.378 E164.20986
G1 X84.102 Y125.04 E164.41119
G1 X83.495 Y123.167 E164.62383
G1 X83.495 Y99.362 E167.19477
G1 X84.234 Y97.579 E167.40322
G1 X84.897 Y96.74 E167.51871
G0 F9000 X85.182 Y97.025
G1 F1800 X93.51 Y90.449 E168.66472
G1 X95.348 Y89.821 E168.8745
G1 X131.25 Y93.742 E172.77497
G1 X132.45 Y93.997 E172.90746
G1 X133.753 Y94.474 E173.05732
G1 X135.322 Y95.385 E173.25326
G1 X136.436 Y96.333 E173.41124
G1 X137.417 Y97.486 E173.57474
G1 X137.992 Y98.412 E173.69246
G1 X138.658 Y99.97 E173.87545
G1 X139.028 Y101.646 E174.06082
G1 X139.105 Y102.781 E174.18368
G1 X139.094 Y104.234 E174.34061
G1 X138.992 Y105.287 E174.45487
G1 X138.598 Y106.909 E174.63514
G1 X137.896 Y108.425 E174.81556
G1 X137.067 Y109.637 E174.97415
G1 X136.157 Y110.606 E175.11772
G1 X134.785 Y111.65 E175.30391
G1 X133.583 Y112.273 E175.45013
G1 X132.417 Y112.681 E175.58354
G1 X130.886 Y112.972 E175.75185
G1 X94.105 Y116.442 E179.74184
G1 X94.105 Y123.285 E180.48088
G1 X93.438 Y125.019 E180.68153
G1 X92.117 Y126.211 E180.8737
G1 X90.473 Y126.812 E181.06274
G1 X87.512 Y126.812 E181.38253
G1 X86.531 Y126.599 E181.49095
G1 X85.652 Y126.063 E181.60214
G1 X84.453 Y124.827 E181.78811
G1 X83.895 Y123.106 E181.98351
G1 X83.895 Y99.443 E184.53911
G1 X84.583 Y97.783 E184.73318
G1 X85.182 Y97.025 E184.83752
G0 F9000 X85.467 Y97.31
G1 F1800 X93.706 Y90.804 E185.97131
G1 X95.391 Y90.228 E186.16363
G1 X131.207 Y94.14 E190.05476
G1 X132.312 Y94.373 E190.17672
G1 X133.615 Y94.85 E190.32658
G1 X135.064 Y95.691 E190.50752
G1 X136.132 Y96.593 E190.6585
G1 X137.078 Y97.699 E190.81568
G1 X137.624 Y98.569 E190.92661
G1 X138.276 Y100.095 E191.10583
G1 X138.629 Y101.673 E191.28047
G1 X138.705 Y102.778 E191.40009
G1 X138.696 Y104.197 E191.55335
G1 X138.603 Y105.193 E191.66138
G1 X138.219 Y106.775 E191.8372
G1 X137.565 Y108.2 E192.00653
G1 X136.775 Y109.363 E192.15837
G1 X135.865 Y110.332 E192.30194
G1 X134.544 Y111.331 E192.48081
G1 X133.451 Y111.895 E192.61364
G1 X132.285 Y112.303 E192.74706
G1 X130.848 Y112.574 E192.90499
G1 X93.705 Y116.078 E196.93424
G1 X93.705 Y123.211 E197.70461
G1 X93.099 Y124.786 E197.88687
G1 X91.907 Y125.862 E198.06029
G1 X90.402 Y126.412 E198.23335
G1 X87.556 Y126.412 E198.54072
G1 X86.682 Y126.222 E198.63731
G1 X85.904 Y125.748 E198.7357
G1 X84.804 Y124.614 E198.90633
G1 X84.295 Y123.045 E199.08447
G1 X84.295 Y99.524 E201.62474
G1 X84.932 Y97.987 E201.80443
G1 X85.467 Y97.31 E201.89762
G0 F9000 X85.752 Y97.595
G1 F1800 X93.9 Y91.161 E203.01888
G1 X95.436 Y90.636 E203.19419
G1 X131.126 Y94.532 E207.0716
G1 X132.174 Y94.749 E207.18719
G1 X133.477 Y95.226 E207.33705
G1 X134.862 Y96.036 E207.51033
G1 X135.829 Y96.854 E207.64712
G1 X136.739 Y97.912 E207.79784
G1 X137.285 Y98.782 E207.90877
G1 X137.894 Y100.218 E208.07722
G1 X138.23 Y101.701 E208.24145
G1 X138.305 Y102.775 E208.35772
G1 X138.296 Y104.194 E208.51098
G1 X138.214 Y105.099 E208.60912
G1 X137.839 Y106.644 E208.78082
G1 X137.233 Y107.976 E208.93887
G1 X136.483 Y109.089 E209.08382
G1 X135.573 Y110.058 E209.22738
G1 X134.36 Y110.976 E209.39167
G1 X133.319 Y111.517 E209.51838
G1 X132.153 Y111.925 E209.65179
G1 X130.81 Y112.176 E209.79935
G1 X93.305 Y115.714 E213.86787
G1 X93.305 Y123.137 E214.66955
G1 X92.76 Y124.553 E214.83342
G1 X91.697 Y125.513 E214.98811
G1 X90.331 Y126.012 E215.14517
G1 X87.6 Y126.012 E215.44012
G1 X86.833 Y125.845 E215.5249
G1 X86.153 Y125.431 E215.61088
G1 X85.155 Y124.402 E215.76569
G1 X84.695 Y122.984 E215.92669
G1 X84.695 Y99.605 E218.45162
G1 X85.281 Y98.191 E218.61693
G1 X85.752 Y97.595 E218.69897
G0 F9000 X86.037 Y97.88
G1 F1800 X94.094 Y91.518 E219.8077
G1 X95.481 Y91.044 E219.966
G1 X131.046 Y94.924 E223.82981
G1 X132.036 Y95.125 E223.93891
G1 X133.339 Y95.602 E224.08877
G1 X134.605 Y96.342 E224.24714
G1 X135.527 Y97.116 E224.37715
G1 X136.4 Y98.125 E224.52125
G1 X136.946 Y98.995 E224.63218
G1 X137.525 Y100.373 E224.79361
G1 X137.831 Y101.729 E224.94374
G1 X137.905 Y102.773 E225.05677
G1 X137.897 Y104.16 E225.20657
G1 X137.825 Y105.005 E225.29816
G1 X137.459 Y106.513 E225.46576
G1 X136.9 Y107.754 E225.61275
G1 X136.191 Y108.815 E225.75057
G1 X135.281 Y109.784 E225.89414
G1 X134.174 Y110.622 E226.04409
G1 X133.187 Y111.139 E226.16442
G1 X132.021 Y111.547 E226.29783
G1 X130.772 Y111.778 E226.43501
G1 X92.905 Y115.35 E230.54281
G1 X92.905 Y123.063 E231.37581
G1 X92.421 Y124.32 E231.52128
G1 X91.487 Y125.164 E231.65724
G1 X90.26 Y125.612 E231.79831
G1 X87.644 Y125.612 E232.08084
G1 X86.984 Y125.468 E232.15379
G1 X86.402 Y125.114 E232.22736
G1 X85.506 Y124.19 E232.36637
G1 X85.095 Y122.923 E232.51022
G1 X85.095 Y99.686 E235.01982
G1 X85.63 Y98.395 E235.17075
G1 X86.037 Y97.88 E235.24164
G0 F9000 X86.322 Y98.165
G1 F1800 X85.979 Y98.599 E235.30138
G1 X85.495 Y99.767 E235.43793
G1 X85.495 Y122.862 E237.93219
G1 X85.857 Y123.978 E238.0589
G1 X86.651 Y124.797 E238.18209
G1 X87.135 Y125.091 E238.24325
G1 X87.688 Y125.212 E238.30439
G1 X90.189 Y125.212 E238.5745
G1 X91.277 Y124.815 E238.69958
G1 X92.082 Y124.087 E238.8168
G1 X92.505 Y122.989 E238.94388
G1 X92.505 Y114.986 E239.8082
G1 X130.734 Y111.38 E243.95526
G1 X131.889 Y111.169 E244.08207
G1 X133.055 Y110.761 E244.21548
G1 X133.987 Y110.268 E244.32935
G1 X134.989 Y109.51 E244.46504
G1 X135.899 Y108.541 E244.60861
G1 X136.567 Y107.533 E244.73921
G1 X137.08 Y106.381 E244.8754
G1 X137.426 Y104.971 E245.0322
G1 X137.498 Y104.126 E245.12379
G1 X137.505 Y102.771 E245.27013
G1 X137.432 Y101.758 E245.37982
G1 X137.156 Y100.528 E245.51596
G1 X136.577 Y99.15 E245.67739
G1 X136.062 Y98.34 E245.78106
G1 X135.225 Y97.379 E245.91869
G1 X134.349 Y96.649 E246.04184
G1 X133.201 Y95.978 E246.18545
G1 X131.898 Y95.501 E246.33531
G1 X131.003 Y95.322 E246.43388
G1 X95.526 Y91.452 E250.28813
G1 X94.288 Y91.875 E250.42942
G1 X86.322 Y98.165 E251.52562
G0 F9000 X86.57 Y98.479
G1 F1800 X94.482 Y92.232 E252.61435
G1 X95.571 Y91.86 E252.73864
G1 X130.927 Y95.715 E256.57972
G1 X131.76 Y95.877 E256.67137
G1 X133.063 Y96.354 E256.82122
G1 X134.094 Y96.957 E256.95022
G1 X134.924 Y97.643 E257.06651
